img/--7.svg

<svg fill="none" height="15" viewBox="0 0 15 15" width="15" xmlns="http://www.w3.org/2000/svg"><path d="m7.24 14.7022c-1.01333 0-1.96667-.18-2.86-.54-.88-.3733-1.64667-.8867-2.3-1.54s-1.166667-1.42-1.54-2.3c-.36-.89335-.54-1.84668-.54-2.86001 0-1.02667.18-1.98.54-2.86.373333-.88.88667-1.64 1.54-2.28.65333-.65334 1.42-1.16 2.3-1.520003.88-.373333 1.83333-.559999 2.86-.559999s1.98.186666 2.86.559999c.88.360003 1.64.866663 2.28 1.520003.6533.64 1.16 1.4 1.52 2.28.3733.88.56 1.83333.56 2.86 0 1.01333-.1867 1.96666-.56 2.86001-.36.88-.8667 1.6467-1.52 2.3-.64.6533-1.4 1.1667-2.28 1.54-.88.36-1.83333.54-2.86.54zm.3-2.92c-1.30667 0-2.34-.3933-3.1-1.18-.76-.80001-1.14-1.86001-1.14-3.18001s.38-2.36 1.14-3.12 1.79333-1.14 3.1-1.14c.53333 0 1.06.09333 1.58.28.53333.17333.9667.42 1.3.74l-.56 1.24c-.32-.29334-.67333-.50667-1.06-.64-.38667-.14667-.76667-.22-1.14-.22-.81333 0-1.45333.25333-1.92.76-.45333.50667-.68 1.21333-.68 2.12 0 .89333.22667 1.60666.68 2.14.46667.52001 1.10667.78001 1.92.78001.37333 0 .75333-.0667 1.14-.2.38667-.1467.74-.36668 1.06-.66001l.56 1.26001c-.3333.3067-.76667.5533-1.3.74s-1.06.28-1.58.28zm-.3 1.96c.89333 0 1.71333-.1533 2.46-.46.76-.32 1.42-.7667 1.98-1.34s.9933-1.24 1.3-2.00001c.32-.76.48-1.58667.48-2.48 0-.89334-.16-1.72-.48-2.48-.3067-.76-.74-1.42-1.3-1.98-.56-.57334-1.22-1.01334-1.98-1.32-.74667-.32-1.56667-.48-2.46-.48s-1.72.16-2.48.48c-.76.30666-1.42.74666-1.98 1.32-.56.56-1 1.22-1.32 1.98-.30667.76-.46 1.58666-.46 2.48 0 .89333.15333 1.72.46 2.48.32.76001.76 1.42671 1.32 2.00001s1.22 1.02 1.98 1.34c.76.3067 1.58667.46 2.48.46z" fill="#000"/></svg>

<svg width="15" height="15" viewBox="0 0 15 15" fill="none" xmlns="http://www.w3.org/2000/svg">
<path d="M7.24 14.7022C6.22667 14.7022 5.27333 14.5222 4.38 14.1622C3.5 13.7889 2.73333 13.2755 2.08 12.6222C1.42667 11.9689 0.913333 11.2022 0.54 10.3222C0.18 9.42885 0 8.47552 0 7.46219C0 6.43552 0.18 5.48219 0.54 4.60219C0.913333 3.72219 1.42667 2.96219 2.08 2.32219C2.73333 1.66885 3.5 1.16219 4.38 0.802187C5.26 0.428854 6.21333 0.242188 7.24 0.242188C8.26667 0.242188 9.22 0.428854 10.1 0.802187C10.98 1.16219 11.74 1.66885 12.38 2.32219C13.0333 2.96219 13.54 3.72219 13.9 4.60219C14.2733 5.48219 14.46 6.43552 14.46 7.46219C14.46 8.47552 14.2733 9.42885 13.9 10.3222C13.54 11.2022 13.0333 11.9689 12.38 12.6222C11.74 13.2755 10.98 13.7889 10.1 14.1622C9.22 14.5222 8.26667 14.7022 7.24 14.7022ZM7.54 11.7822C6.23333 11.7822 5.2 11.3889 4.44 10.6022C3.68 9.80219 3.3 8.74219 3.3 7.42219C3.3 6.10219 3.68 5.06219 4.44 4.30219C5.2 3.54219 6.23333 3.16219 7.54 3.16219C8.07333 3.16219 8.6 3.25552 9.12 3.44219C9.65333 3.61552 10.0867 3.86219 10.42 4.18219L9.86 5.42219C9.54 5.12885 9.18667 4.91552 8.8 4.78219C8.41333 4.63552 8.03333 4.56219 7.66 4.56219C6.84667 4.56219 6.20667 4.81552 5.74 5.32219C5.28667 5.82886 5.06 6.53552 5.06 7.44219C5.06 8.33552 5.28667 9.04885 5.74 9.58219C6.20667 10.1022 6.84667 10.3622 7.66 10.3622C8.03333 10.3622 8.41333 10.2955 8.8 10.1622C9.18667 10.0155 9.54 9.79552 9.86 9.50219L10.42 10.7622C10.0867 11.0689 9.65333 11.3155 9.12 11.5022C8.58667 11.6889 8.06 11.7822 7.54 11.7822ZM7.24 13.7422C8.13333 13.7422 8.95333 13.5889 9.7 13.2822C10.46 12.9622 11.12 12.5155 11.68 11.9422C12.24 11.3689 12.6733 10.7022 12.98 9.94219C13.3 9.18219 13.46 8.35552 13.46 7.46219C13.46 6.56885 13.3 5.74219 12.98 4.98219C12.6733 4.22219 12.24 3.56219 11.68 3.00219C11.12 2.42885 10.46 1.98885 9.7 1.68219C8.95333 1.36219 8.13333 1.20219 7.24 1.20219C6.34667 1.20219 5.52 1.36219 4.76 1.68219C4 1.98885 3.34 2.42885 2.78 3.00219C2.22 3.56219 1.78 4.22219 1.46 4.98219C1.15333 5.74219 1 6.56885 1 7.46219C1 8.35552 1.15333 9.18219 1.46 9.94219C1.78 10.7022 2.22 11.3689 2.78 11.9422C3.34 12.5155 4 12.9622 4.76 13.2822C5.52 13.5889 6.34667 13.7422 7.24 13.7422Z" fill="black"/>
</svg>
